X: 13
T:Dan O'Keefe's slide
R:Slide
S:Charlie Saksena
O:Aharon's Slide #1
M:12/8
L:1/8
Q:3/8=100
K:ADor
"Am"A2e "D"e2d "G"BAB d2B|"Am"A2e e2d "G"B2G GFG|"Am"A2e e2d "D"BAB "G"d3|"D"BAB "G"d2e B2A "Am"A3:|
|:"Am"e2a a2b "Em"a2g "D"e2d|"Am"e2a a2b "Em"a2f "D"e2f|"G"g2a "C"g2e "G"dBA "Am"G3|"D"BAB "G"d2e B2A "Am"A3:|
